X:996
T:Hostie
C:Joe Buchanan's Scottish Tome - Page 580.2
I:580 2
Z:Carl Allison
R:Waltz
L:1/4
M:3/4
K:A
e | "A"c2 B/A/ | "E"A2 "a"e | "A7"c2 B/A/ | "D"a2 f | "A"e2 c/A/ | "F#m"A2 B/c/ | "B7"B3- | "E7"B2 e |
"A"c2 B/A/ | "E"A2 "a"e | "A7"c2 B/A/ | "D"a2 f | "A"e2 c/A/ | "E7"B2c | "A"A3- |  "A"A2 :|
e | "D"f2 e/f/ | "Bm"a2 f | "A"e2 c/A/ | "A7"A2 e | "D"f2 e/f/ | "F#m"a2 c | "B7"B3- | "E"B2 e |
"D"f2 e/f/ | "Bm"a2f | "A"e2 c/A/ | "F#m"A2 f | "A"e2 c/A/ | "E7"B2 c | A3- | "A7"A2 e |
"D"f2 e/f/ | "Bm"a2 f | "A"e2 c/A/ | "A7"A2 e | "D"f2 e/f/ | "F#m"a2 a/c/ | "B7"B3- | "E7"B2 a |
"A"c2 B/A/ | "F#m"A2 e | "A7"c2 B/A/ | "D"a2 "B"f | "A"e2 c/A/ | "E7"B2 c | "A"A3- | "A"A2 :|
